X:128
T:The Banks of Banna
N:"Moderate"
B:O'Neill's 128
Z:Transcribed by henrik.norbeck@mailbox.swipnet.se
M:C
L:1/8
K:C
c3 d e2 ed|c2 G2 G4|A2 G2 c2 Bdc|B2 A2 G4|
c3 c ceeg|G3 A AGFE|FGAB cdcF|E2 D2 C4||
E3 D E2 F2|G2 BAG G4|A2 G2 c2 Bdc|B2 A2 G4|
c2 c2 ceeg|G3 A AGFE|FGAB cdcF|E2 D2 C4||
